!!!COM: Hindemith, Paul
!!!OTL: Symphonic Metamorphosis of Themes by Carl Maria von Weber
!!!OMV: I: Allegro
!!!example: 669A
!!!work: Hin-82
**kern	**dynam	**kern	**dynam	**kern	**dynam	**kern	**dynam	**kern	**dynam	**kern	**dynam	**kern	**dynam	**kern	**dynam	**kern	**dynam	**kern	**dynam	**kern	**dynam	**kern	**dynam	**kern	**dynam	**kern	**dynam	**kern	**dynam	**kern	**dynam	**kern	**dynam
*part17	*part17	*part16	*part16	*part15	*part15	*part14	*part14	*part13	*part13	*part12	*part12	*part11	*part11	*part10	*part10	*part9	*part9	*part8	*part8	*part7	*part7	*part6	*part6	*part5	*part5	*part4	*part4	*part3	*part3	*part2	*part2	*part1	*part1
*staff17	*	*staff16	*	*staff15	*	*staff14	*	*staff13	*	*staff12	*	*staff11	*	*staff10	*	*staff9	*	*staff8	*	*staff7	*	*staff6	*	*staff5	*	*staff4	*	*staff3	*	*staff2	*	*staff1	*
*I"Double Bass	*	*I"Violoncello	*	*I"Viola	*	*I"Violin II	*	*I"Violin I	*	*I"Bass Drum	*	*I"Tuba	*	*I"Trombone	*	*I"Trombone	*	*I"Trombone	*	*I"Horn in F	*	*I"Bassoon	*	*I"Bass Clarinet in Bb	*	*I"Clarinet in Bb	*	*I"Cor Anglais	*	*I"Flute	*	*I"Piccolo	*
*I'Db.	*	*I'Vc.	*	*I'Vla.	*	*I'Vln. II	*	*I'Vln. I	*	*I'B. D.	*	*I'Tba.	*	*I'Tbn.	*	*I'Tbn.	*	*I'Tbn.	*	*I'Hn.	*	*I'Bsn.	*	*I'B. Cl.	*	*I'Cl.	*	*I'C. A.	*	*I'Fl.	*	*I'Picc.	*
*clefF4	*	*clefF4	*	*clefC3	*	*clefG2	*	*clefG2	*	*clefpercussion0	*	*clefF4	*	*clefF4	*	*clefF4	*	*clefF4	*	*clefG2	*	*clefF4	*	*clefG2	*	*clefG2	*	*clefG2	*	*clefG2	*	*clefG2	*
*k[]	*	*k[]	*	*k[]	*	*k[]	*	*k[]	*	*	*	*k[]	*	*k[]	*	*k[]	*	*k[]	*	*	*	*k[]	*	*k[]	*	*k[]	*	*k[]	*	*k[]	*	*k[]	*
*	*	*	*	*	*	*	*	*	*	*	*	*	*	*	*	*	*	*	*	*	*	*	*	*	*	*	*	*	*	*	*	*	*
*M2/4	*	*M2/4	*	*M2/4	*	*M2/4	*	*M2/4	*	*M2/4	*	*M2/4	*	*M2/4	*	*M2/4	*	*M2/4	*	*M2/4	*	*M2/4	*	*M2/4	*	*M2/4	*	*M2/4	*	*M2/4	*	*M2/4	*
*MM121	*	*MM121	*	*MM121	*	*MM121	*	*MM121	*	*MM121	*	*MM121	*	*MM121	*	*MM121	*	*MM121	*	*MM121	*	*MM121	*	*MM121	*	*MM121	*	*MM121	*	*MM121	*	*MM121	*
=124	=124	=124	=124	=124	=124	=124	=124	=124	=124	=124	=124	=124	=124	=124	=124	=124	=124	=124	=124	=124	=124	=124	=124	=124	=124	=124	=124	=124	=124	=124	=124	=124	=124
8AAA	mf	8AA	mf	8A	.	8A	mf	8A	mf	8x	p	8AAA	p	8r	.	8r	.	8r	.	8F	p	8A	mp	8A	.	8A	.	8A	mf	4r	.	4r	.
8r	.	8r	.	8r	.	8r	.	8r	.	8r	.	8r	.	8D	p	8F	p	8A	p	8r	.	8r	.	8r	.	8r	.	8r	.	.	.	.	.
4r	.	4r	.	[4f	mf	4r	.	4r	.	8x	.	8AAA	.	8r	.	8r	.	8r	.	8F	.	4r	.	[4AA	mp	[4f	mf	4r	.	[4ccc	pp	[4aaa	pp
.	.	.	.	.	.	.	.	.	.	8r	.	8r	.	8D	.	8G	.	8B	.	8r	.	.	.	.	.	.	.	.	.	.	.	.	.
=125	=125	=125	=125	=125	=125	=125	=125	=125	=125	=125	=125	=125	=125	=125	=125	=125	=125	=125	=125	=125	=125	=125	=125	=125	=125	=125	=125	=125	=125	=125	=125	=125	=125
2r	.	2r	.	8fL]	.	2r	.	2r	.	8r	.	8r	.	8D	.	8A-X	.	8c	.	8r	.	2r	.	2AA_	.	8fL]	.	2r	.	8cccL]	.	8aaaL]	.
.	.	.	.	16eL	.	.	.	.	.	8x	.	8AAA	.	8r	.	8r	.	8r	.	8F	.	.	.	.	.	16eL	.	.	.	16bbL	.	16ggg#XL	.
.	.	.	.	16dJJ	.	.	.	.	.	.	.	.	.	.	.	.	.	.	.	.	.	.	.	.	.	16dJJ	.	.	.	16aaJJ	.	16fff#XJJ	.
.	.	.	.	(4c#Xt	.	.	.	.	.	8r	.	8r	.	8D	.	8G-X	.	8B-X	.	8r	.	.	.	.	.	(4c#Xt	.	.	.	(4gg#Xt	.	(4eee#Xt	.
.	.	.	.	.	.	.	.	.	.	8x	.	8AAA	.	8r	.	8r	.	8r	.	8F	.	.	.	.	.	.	.	.	.	.	.	.	.
=126	=126	=126	=126	=126	=126	=126	=126	=126	=126	=126	=126	=126	=126	=126	=126	=126	=126	=126	=126	=126	=126	=126	=126	=126	=126	=126	=126	=126	=126	=126	=126	=126	=126
2r	.	2r	.	8dL)	.	2r	.	2r	.	4r	.	4r	.	8DL	.	8FL	.	8AL	.	4r	.	2r	.	2AA_	.	8dL)	.	2r	.	8aaL)	.	8fff#XL)	.
.	.	.	.	8AJ	.	.	.	.	.	.	.	.	.	8CJ	.	8E-XJ	.	8GJ	.	.	.	.	.	.	.	8AJ	.	.	.	8eeJ	.	8ccc#XJ	.
.	.	.	.	[4B-X^	.	.	.	.	.	8x	.	8AAA	.	8r	.	8r	.	8r	.	8F	.	.	.	.	.	[4B-X^	.	.	.	[4ff^	.	[4ddd^	.
.	.	.	.	.	.	.	.	.	.	8r	.	8r	.	8BB-X	.	8D-X	.	8F	.	8r	.	.	.	.	.	.	.	.	.	.	.	.	.
=127	=127	=127	=127	=127	=127	=127	=127	=127	=127	=127	=127	=127	=127	=127	=127	=127	=127	=127	=127	=127	=127	=127	=127	=127	=127	=127	=127	=127	=127	=127	=127	=127	=127
2r	.	2r	.	8B-L]	.	2r	.	2r	.	8x	.	8AAA	.	8r	.	8r	.	8r	.	8F	.	2r	.	2AA_	.	8B-L]	.	2r	.	8ffL]	.	8dddL]	.
.	.	.	.	16AL	.	.	.	.	.	8r	.	8r	.	8AAn	.	8C	.	8E	.	8r	.	.	.	.	.	16AL	.	.	.	16eeL	.	16ccc#XL	.
.	.	.	.	16GJJ	.	.	.	.	.	.	.	.	.	.	.	.	.	.	.	.	.	.	.	.	.	16GJJ	.	.	.	16ddJJ	.	16bbJJ	.
.	.	.	.	(8FL	.	.	.	.	.	8r	.	8r	.	8GG	.	8BB-X	.	8D	.	8r	.	.	.	.	.	(8FL	.	.	.	(8ccL	.	(8aaL	.
.	.	.	.	8EJ)	.	.	.	.	.	8x	.	8AAA	.	8r	.	8r	.	8r	.	8F	.	.	.	.	.	8EJ)	.	.	.	8bJ)	.	8gg#XJ)	.
=128	=128	=128	=128	=128	=128	=128	=128	=128	=128	=128	=128	=128	=128	=128	=128	=128	=128	=128	=128	=128	=128	=128	=128	=128	=128	=128	=128	=128	=128	=128	=128	=128	=128
2r	.	2r	.	8FL	.	2r	.	2r	.	8r	.	8r	.	8FF	.	8AA	.	8C	.	8r	.	2r	.	2AA_	.	8FL	.	2r	.	8ccL	.	8aaL	.
.	.	.	.	16DL	.	.	.	.	.	8x	.	8AAA	.	8r	.	8r	.	8r	.	8F	.	.	.	.	.	16DL	.	.	.	16aL	.	16ff#XL	.
.	.	.	.	16EJJ	.	.	.	.	.	.	.	.	.	.	.	.	.	.	.	.	.	.	.	.	.	16EJJ	.	.	.	16bJJ	.	16gg#XJJ	.
.	.	.	.	(8FL	.	.	.	.	.	4r	.	4r	.	8GGL	.	8BBnL	.	8DL	.	4r	.	.	.	.	.	(8FL	.	.	.	(8ccL	.	(8aaL	.
.	.	.	.	8GJ)	.	.	.	.	.	.	.	.	.	8AAJ	.	8C#XJ	.	8EJ	.	.	.	.	.	.	.	8GJ)	.	.	.	8ddJ)	.	8bbJ)	.
=129	=129	=129	=129	=129	=129	=129	=129	=129	=129	=129	=129	=129	=129	=129	=129	=129	=129	=129	=129	=129	=129	=129	=129	=129	=129	=129	=129	=129	=129	=129	=129	=129	=129
2r	.	2r	.	8A'L	.	2r	.	2r	.	8x	<	8AAA	<	8r	.	8r	.	8r	.	8F	<	2r	.	2AA_	<	8A'L	.	2r	.	8ee'L	.	8ccc#X'L	.
.	.	.	.	8B'J	<	.	.	.	.	8r	.	8r	.	8AA	<	8D	<	8F	<	8r	.	.	.	.	.	8B'J	<	.	.	8ff#X'J	<	8ddd#X'J	<
.	.	.	.	[4c^	.	.	.	.	.	8x	.	8AAA	.	8r	.	8r	.	8r	.	8F	.	.	.	.	.	[4c^	.	.	.	[4gg^	.	[4eee^	.
.	.	.	.	.	.	.	.	.	.	8r	.	8r	.	8BB-X	.	8E-X	.	8G	.	8r	.	.	.	.	.	.	.	.	.	.	.	.	.
=130	=130	=130	=130	=130	=130	=130	=130	=130	=130	=130	=130	=130	=130	=130	=130	=130	=130	=130	=130	=130	=130	=130	=130	=130	=130	=130	=130	=130	=130	=130	=130	=130	=130
2r	.	2r	.	8cL]	.	2r	.	2r	.	8r	.	8r	.	8C	.	8F	.	8A	.	8r	.	2r	.	2AA_	.	8cL]	.	2r	.	8ggL]	.	8eeeL]	.
.	.	.	.	8d'J	.	.	.	.	.	8x	.	8AAA	.	8r	.	8r	.	8r	.	8F	.	.	.	.	.	8d'J	.	.	.	8aa'J	.	8fff#X'J	.
.	.	.	.	[4e^	.	.	.	.	.	8r	.	8r	.	8D	.	8G	.	8B	.	8r	.	.	.	.	.	[4e^	.	.	.	[4bb^	.	[4ggg#X^	.
.	.	.	.	.	.	.	.	.	.	8x	.	8AAA	.	8r	.	8r	.	8r	.	8F	.	.	.	.	.	.	.	.	.	.	.	.	.
=131	=131	=131	=131	=131	=131	=131	=131	=131	=131	=131	=131	=131	=131	=131	=131	=131	=131	=131	=131	=131	=131	=131	=131	=131	=131	=131	=131	=131	=131	=131	=131	=131	=131
2r	.	2r	.	8eL]	.	2r	.	2r	.	4r	.	4r	.	8E-XL	.	8A-XL	.	8cL	.	4r	.	2r	.	2AA_	[[	8eL]	.	2r	.	8bbL]	.	8ggg#L]	.
.	.	.	.	8aJ	.	.	.	.	.	.	.	.	.	8G-XJ	.	8c-XJ	.	8e-XJ	.	.	.	.	.	.	.	8aJ	.	.	.	8eeeJ	.	8cccc#XJ	.
.	.	.	.	(16aLL	.	.	.	.	.	8x	.	8AAA	.	8r	.	8r	.	8r	.	8F	.	.	.	.	.	(16aLL	.	.	.	(16eeeLL	.	(16cccc#LL	.
.	.	.	.	16g#X	.	.	.	.	.	.	.	.	.	.	.	.	.	.	.	.	.	.	.	.	.	16g#X	.	.	.	16ddd#X	.	16bbb#X	.
.	.	.	.	16f#X	.	.	.	.	.	8r	[[	8r	[[	8F	[[	8B-X	[[	8d	[[	8r	[[	.	.	.	.	16f#X	.	.	.	16ccc#X	.	16aaa#X	.
.	.	.	.	16g#JJ)	[[	.	.	.	.	.	.	.	.	.	.	.	.	.	.	.	.	.	.	.	.	16g#JJ)	[[	.	.	16ddd#JJ)	[[	16bbb#JJ)	[[
=	=	=	=	=	=	=	=	=	=	=	=	=	=	=	=	=	=	=	=	=	=	=	=	=	=	=	=	=	=	=	=	=	=
*-	*-	*-	*-	*-	*-	*-	*-	*-	*-	*-	*-	*-	*-	*-	*-	*-	*-	*-	*-	*-	*-	*-	*-	*-	*-	*-	*-	*-	*-	*-	*-	*-	*-
!!!system-decoration: [(s1,s2,s3,s4,s5,s6)][(s7,s8,s9,s10,s11)]s12[(s13,s14,s15,s16,s17)]
!!!CDT: 1895/11/16-1963/12/28
!!!CBL: Hanau, Germany
!!!CDL: Frankfurt, Germany
!!!CNT: German
!!!AGN: Orchestral; Symphonic
!!!MCN: Rodzinsky, Artur
!!!MDT: 1944/01/20
!!!MGN: New York Philharmonic Orchestra
!!!MLC: New York, New York, United States of America
!!!MPD: 1944
!!!MPN:
!!!ODT: 1943
!!!PDT: 1945
!!!excerpt-start-measure: 124
!!!excerpt-end-measure: 131
!!!excerpt-start-time: 3:14
!!!excerpt-end-time: 3:24
!!!EEV: 2020/01/22
!!!ONB: Converted from MusicXML on 2020/01/22
